X:1
T:Canon in D For beginner cello solo
T:Original available @celloonline.com Transcriber: yyaname
L:1/8
Q:1/4=80
M:4/4
K:D
V:1 bass nm="Violoncello" snm="Vc."
V:1
"^Sostenuto""_For Basso continuo" D,2 A,,2 B,,2 F,,2 | G,,2 D,,2 G,,2 A,,2 | %2
"_Melody starts here" F,4 E,4 | D,4 C,4 | B,,4 A,,4 | B,,4 C,4 | D,4 C,4 | B,,4 A,,4 | G,4 F,4 | %9
 G,4 E,4 | D,2 F,2 A,2 G,2 | F,2 D,2 F,2 E,2 | D,2 B,,2 D,2 A,2 | G,2 B,2 A,2 G,2 | %14
 F,2 D,2 E,2 C,2 | D,2 F,2 A,2 A,2 | B,2 G,2 A,2 F,2 | D,2 D2 D2- DC | %18
 A,(F,/G,/) A,(F,/G,/)"^* Red slurs are optional" (A,/A,,/B,,/C,/) (D,/E,/F,/G,/) | %19
 F,(D,/E,/) F,(F,/G,/) (A,/B,/A,/G,/) (A,/F,/G,/A,/) | %20
 G,(B,/A,/) G,(F,/E,/) (F,/E,/D,/E,/) (F,/G,/A,/B,/) | %21
 G,(B,/A,/) B,(C/D/) (A,,/B,,/C,/D,/) (E,/F,/G,/A,/) | %22
 F,(D,/E,/) F,(E,/D,/) (E,/C,/D,/E,/) (F,/E,/D,/C,/) | %23
 D,(B,,/C,/) D,(D,/E,/) (F,/G,/F,/E,/) (F,/D,/C,/D,/) | %24
 B,,(D,/C,/) B,,(A,,/G,,/) (A,,/G,,/F,,/G,,/) (A,,/B,,/C,/D,/) | %25
 B,,(D,/C,/) D,(C,/B,,/) (C,/D,/E,/D,/) (C,/D,/B,,/C,/) | D,3 F, (F,G,)(F,E,) | %27
 D,3 D, (D,E,)(D,C,) | B,,4 D,4 | D,=C,B,,C, A,,3 A,, | A,,3 A, (A,B,)(A,G,) | %31
 F,3 F, (F,G,)(F,E,) | D,=C,B,,C, A,,3 A,, | G,,2 D,2 C,3 C, | F,,3 F, (F,G,)(F,E,) | %35
 D,3 D, (D,E,)(D,C,) | B,,4 D,4 | D,=C,B,,C, A,,3 A,, | F,,2 (F,4 E,2) | D,2 (D4 =C2) | %40
 B,4 (D2 A,2) | B,4 A,4 | A,4 (A,,3 !tenuto!G,,) | F,,4 (F,3 !tenuto!E,) | D,6 D,2 | D,4 C,4 | %46
 D,2 D,2 C,2 C2 | B,2 B,,2 A,,2 A,2 | G,2 G,2 F,2 F,,2 | E,,2 B,,2 E,,2 E,2 | F,2 F,,2 E,,2 E,2 | %51
 D,2 D,2 C,2 C,2 | B,,2 B,2 A,2 A,,2 | A,,3 E, A,,2 A,,2 | !fermata!D,6 z2 |] %55

